X:2
T:Dawning of the Day
T:Seconds
R:March
M:C
C:arr. Mike LeBoeuf
L:1/8
K:D
{g}c>d | {g}e2 {A}e2 {gef}e2 {g}de | {gcd}c2 {g}c/B/{G}A {Gdc}d2 a>e | {g}c2 {g}ed {c}d2 {g}d<e | {g}c4 {GdG}c2 A2 |
{Gdc}d3 c {g}d2 A2 | {g}A// e3 d {g}c2 {g}A>B | {gcd}c2 A2 {gef}e2 {g}A2 | {Gdc}d4 {gdc}d2 {g}Ac |
{g}d3 c {g}d2 A2 | {g}A// e3 d {g}c3 f | {gcd}c2 e2 {gAd}A2 {g}e2 | {Gdc}d4 {gdc}d2 {g}c>d |
{g}e2 {A}e2 {gef}e2 {g}de | {gcd}c2 {g}c/B/{G}A {Gdc}d2 a>e | {g}c2 {g}ed {c}d2 {g}d<e | {g}c4 {GdG}c2 |]

